X:1
T:James Gibb editions
T:Psalm 36 (Becker) - Schütz
%%score [ ( 1 2 ) ( 3 4 ) ]
L:1/8
Q:1/4=77
M:2/2
K:F
V:1 treble nm="Soprano Alto"
V:2 treble 
V:3 bass nm="Tenor Bass"
V:4 bass 
V:1
"^Cornelius Becker\n(1561-1604)""^Psalm 36, SWV 133""^Heinrich Schütz\n(1585-1672)" f4 d4 | %1
w: ~So weit,|
w: dein Wahr-|
 c2 B4 G2 | B2 A2 G4 | B4 c4 | A2 B4 A2 | G4 F4 :|[M:2/2] c4 d4 | B2 _e4 d2 | B2 c2 d4 | A4 B4 | %10
w: Herr Gott, der|Him- mel reicht,|geht dein|Treu, Güt und|Le- ben,|Ge- rech-|tig- keit wie|Ber- ge steht,|dein Recht|
w: heit sich den|Wol- ken gleicht,|die ü-|ber uns hoch|schwe- ben,|||||
 A2 G4 F2 | G2 A2 B4 | A4 c4 | B2 A4 G2 | A8 | G8 |] %16
w: nim- mer zu-|grun- de geht,|du hilfst|beid, Vieh und|Men-|schen.|
w: ||||||
V:2
 D4 F4 | F2 D4 _E2 | D2 D2 D4 | D4 F4 | C2 _E4 C2 | C4 C4 :|[M:2/2] F4 F4 | G2 G4 ^F2 | G2 G2 ^F4 | %9
 ^F4 G4 | F2 _E4 D2 | B,2 F2 F4 | D4 _E4 | D2 D4 B,2 | D8 | D8 |] %16
V:3
 F,4 B,4 | A,2 G,4 G,2 | G,2 ^F,2 G,4 | G,4 A,4 | F,2 G,4 F,2 | _E,4 F,4 :|[M:2/2] A,4 B,4 | %7
w: |||||||
 G,2 C4 A,2 | G,2 G,2 A,4 | D4 D4 | D2 B,4 B,2 | %11
w: ||||
"^4. Wie teur, o Gott, ist deine Güt, der wir uns ganz vertrauen,\ndeiner Gnad Fittich uns behüt vor aller Furcht und Grauen.\nGleich wie die Henn ihr Küchlein fein, also deck uns die Gnade dein,\nin Fried bei dir zu wohnen.\n\n5. Von deines Hauses Gütern reich zur Fröhlichkeit uns tränkest,\ndie Füll der Freud uns all zugleich gar mildiglich einschenkest;\nder Quell des Lebens ist bei dir, im Licht dein's Wortes sehen wir\ndas Licht der Gnad und Lebens.\n\n6. Breit aus deine Gerechtigkeit üb'r die, so dich, Herr, kennen,\ndein Treu und Güt zu jeder Zeit beweis in Gnad den Frommen.\nLaß nicht zu, daß die stolze Rott mich tret unter die Füße fort\nund ihre Hand mich stürze." G,2 C2 B,4 | %12
w: |
 F,4 G,4 | G,2 ^F,4 G,2- | G,2 (^F,E, !courtesy!^F,4) | G,8 |] %16
w: |* * und|* Men- * *|schen.|
V:4
 B,,4 B,,4 | F,2 G,4 C,2 | G,,2 D,2 G,,4 | G,4 F,4 | F,2 _E,4 F,2 | C,4 F,,4 :|[M:2/2] F,4 B,,4 | %7
 _E,2 C,4 D,2 | _E,2 E,2 D,4 | D,4 G,4 | D,2 _E,4 B,,2 | _E,2 F,2 B,,4 | D,4 C,4 | G,,2 D,4 _E,2 | %14
 D,8 | G,,8 |] %16

